app/renderer/assets/images/newsafe_black.svg

<svg viewBox="0 0 187 187" fill="none" xmlns="http://www.w3.org/2000/svg">
<path d="M68.2044 36.6484L75.9147 59.8778L80.7706 57.7123L68.6637 36.4351L61.9377 5.56104C57.7216 7.08669 53.6368 8.90764 49.7324 11.0075L68.2044 36.6484Z" fill="#000000"/>
<path d="M20.1868 35.944L47.4682 51.8404L63.9552 69.9351L67.4987 65.9979L47.7799 51.4795L29.1111 26.019C25.8957 29.1032 22.91 32.417 20.1704 35.944H20.1868Z" fill="#000000"/>
<path d="M57.0321 43.1597L69.4014 64.2893L73.6995 61.1723L57.4258 42.8808L44.4495 14.0737C40.6599 16.436 37.0509 19.0608 33.655 21.9317L57.0321 43.1597V43.1597Z" fill="#000000"/>
<path d="M32.1138 99.742L56.59 99.5944L56.0322 94.312L32.0482 99.2499L0.64917 96.0837C0.796814 100.595 1.25615 105.041 2.02718 109.372L32.0974 99.742H32.1138Z" fill="#000000"/>
<path d="M32.0482 86.8142L56.0322 91.7521L56.59 86.4697L32.1138 86.3221L2.02718 76.6924C1.25615 81.0233 0.796814 85.4526 0.64917 89.9804L32.0482 86.8142Z" fill="#000000"/>
<path d="M34.6894 74.1677L57.1149 83.9942L58.7554 78.9415L34.837 73.7083L7.40797 58.0088C5.73467 62.11 4.35665 66.3589 3.27393 70.7226L34.6894 74.1677V74.1677Z" fill="#000000"/>
<path d="M80.4746 32.613L83.1814 56.9415L88.3654 55.8424L80.9504 32.5146L80.8191 0.935059C76.357 1.54204 71.9933 2.47712 67.7444 3.70749L80.4746 32.613V32.613Z" fill="#000000"/>
<path d="M39.9063 62.3375L59.8055 76.6098L62.4631 72.0165L40.1524 61.9274L16.5785 40.8799C14.0849 44.5546 11.8374 48.4262 9.88525 52.4454L39.9063 62.3375Z" fill="#000000"/>
<path d="M130.035 83.9766L152.46 74.1501L183.876 70.705C182.793 66.3413 181.415 62.0924 179.742 57.9912L152.313 73.6743L128.394 78.9075L130.035 83.9602V83.9766Z" fill="#000000"/>
<path d="M146.997 61.9103L124.686 71.9994L127.344 76.5928L147.243 62.3205L177.264 52.4283C175.312 48.3927 173.064 44.5375 170.571 40.8628L146.997 61.9103Z" fill="#000000"/>
<path d="M129.722 42.8676L113.449 61.1591L117.747 64.2761L130.116 43.1465L153.493 21.9185C150.097 19.0476 146.488 16.4229 142.699 14.0605L129.722 42.8676V42.8676Z" fill="#000000"/>
<path d="M86.906 0.294706L93.3367 31.2016L90.9252 55.5629H96.2404L93.8289 31.2016L100.26 0.294706C98.045 0.130656 95.8303 0.0322266 93.5828 0.0322266C91.3353 0.0322266 89.1207 0.147061 86.906 0.294706Z" fill="#000000"/>
<path d="M118.502 36.4508L106.395 57.728L111.251 59.8934L118.961 36.664L137.433 11.0231C133.529 8.92327 129.444 7.10232 125.228 5.57666L118.518 36.4672L118.502 36.4508Z" fill="#000000"/>
<path d="M106.198 32.497L98.7827 55.8248L103.967 56.924L106.673 32.5954L119.404 3.68992C115.155 2.45955 110.808 1.54087 106.329 0.91748L106.198 32.497V32.497Z" fill="#000000"/>
<path d="M158.022 26.019L139.353 51.4795L119.634 65.9979L123.178 69.9351L139.664 51.8404L166.946 35.944C164.206 32.4334 161.221 29.1032 158.005 26.019H158.022Z" fill="#000000"/>
<path d="M118.945 149.416L111.235 126.187L106.379 128.352L118.486 149.63L125.196 180.52C129.412 178.995 133.497 177.174 137.401 175.074L118.929 149.433L118.945 149.416Z" fill="#000000"/>
<path d="M130.116 142.92L117.747 121.791L113.449 124.907L129.722 143.199L142.699 172.006C146.488 169.644 150.097 167.019 153.493 164.148L130.116 142.92V142.92Z" fill="#000000"/>
<path d="M147.243 123.742L127.344 109.47L124.686 114.063L146.997 124.152L170.571 145.2C173.064 141.525 175.312 137.653 177.264 133.634L147.243 123.742Z" fill="#000000"/>
<path d="M166.962 150.138L139.681 134.242L123.194 116.147L119.65 120.084L139.369 134.603L158.038 160.063C161.253 156.979 164.239 153.665 166.978 150.138H166.962Z" fill="#000000"/>
<path d="M155.035 86.3221L130.559 86.4697L131.117 91.7521L155.101 86.8142L186.5 89.9804C186.352 85.469 185.893 81.0233 185.122 76.6924L155.051 86.3221H155.035Z" fill="#000000"/>
<path d="M155.101 99.2499L131.117 94.312L130.559 99.5944L155.035 99.742L185.105 109.372C185.876 105.041 186.336 100.612 186.483 96.0837L155.084 99.2499H155.101Z" fill="#000000"/>
<path d="M152.46 111.914L130.035 102.088L128.394 107.141L152.313 112.374L179.742 128.057C181.415 123.956 182.793 119.707 183.876 115.343L152.46 111.898V111.914Z" fill="#000000"/>
<path d="M100.26 185.769L93.8289 154.862L96.2404 130.501H90.9252L93.3367 154.862L86.906 185.769C89.1207 185.933 91.3353 186.032 93.5828 186.032C95.8303 186.032 98.045 185.917 100.26 185.769V185.769Z" fill="#000000"/>
<path d="M106.673 153.466L103.967 129.138L98.7827 130.237L106.198 153.565L106.329 185.144C110.791 184.537 115.155 183.602 119.404 182.372L106.673 153.466V153.466Z" fill="#000000"/>
<path d="M57.4258 143.199L73.6995 124.907L69.4014 121.791L57.0321 142.92L33.655 164.148C37.0509 167.019 40.6599 169.644 44.4495 172.006L57.4258 143.199V143.199Z" fill="#000000"/>
<path d="M40.1524 124.168L62.4631 114.079L59.8055 109.485L39.9063 123.758L9.88525 133.65C11.8374 137.685 14.0849 141.541 16.5785 145.215L40.1524 124.168Z" fill="#000000"/>
<path d="M29.1279 160.047L47.7967 134.587L67.5154 120.069L63.9719 116.131L47.485 134.226L20.22 150.122C22.9596 153.633 25.9453 156.963 29.1607 160.047H29.1279Z" fill="#000000"/>
<path d="M68.6473 149.63L80.7542 128.352L75.8983 126.187L68.188 149.416L49.7324 175.057C53.6368 177.157 57.7216 178.978 61.9377 180.504L68.6473 149.613V149.63Z" fill="#000000"/>
<path d="M34.837 112.374L58.7554 107.141L57.1149 102.088L34.6894 111.914L3.27393 115.359C4.35665 119.723 5.73467 123.972 7.40797 128.073L34.837 112.39V112.374Z" fill="#000000"/>
<path d="M80.9679 153.565L88.383 130.237L83.199 129.138L80.4922 153.466L67.762 182.372C72.0108 183.602 76.3582 184.521 80.8367 185.144L80.9679 153.565V153.565Z" fill="#000000"/>
</svg>

<svg xmlns="http://www.w3.org/2000/svg" viewBox="-4.4 -4.4 195.8 195.8" fill="none">
  <!-- <circle cx="93.55" cy="93.05" fill="#ffffff" r="93.1" /> -->
  <path fill="#000" d="m68.204 36.648 7.71 23.23 4.857-2.166-12.107-21.277-6.726-30.874a91.533 91.533 0 0 0-12.206 5.447l18.472 25.64ZM20.187 35.944 47.468 51.84l16.487 18.095 3.544-3.937-19.72-14.519-18.668-25.46a91.647 91.647 0 0 0-8.94 9.925h.016ZM57.032 43.16l12.37 21.13 4.297-3.118-16.273-18.291-12.977-28.807a92.551 92.551 0 0 0-10.794 7.858L57.032 43.16ZM32.114 99.742l24.476-.148-.558-5.282-23.984 4.938L.65 96.084a93.268 93.268 0 0 0 1.378 13.288l30.07-9.63h.017ZM32.048 86.814l23.984 4.938.558-5.282-24.476-.148-30.087-9.63A93.014 93.014 0 0 0 .65 89.98l31.4-3.166ZM34.69 74.168l22.425 9.826 1.64-5.052-23.918-5.234-27.429-15.7a92.802 92.802 0 0 0-4.134 12.715l31.415 3.445ZM80.475 32.613l2.706 24.328 5.184-1.099-7.415-23.327-.13-31.58a91.16 91.16 0 0 0-13.076 2.772l12.73 28.906ZM39.906 62.337l19.9 14.273 2.657-4.594-22.31-10.089L16.577 40.88a92.948 92.948 0 0 0-6.693 11.565l30.021 9.892ZM130.035 83.977l22.425-9.827 31.416-3.445a92.881 92.881 0 0 0-4.134-12.714l-27.429 15.683-23.919 5.233 1.641 5.053v.017ZM146.997 61.91 124.686 72l2.658 4.593 19.899-14.273 30.021-9.892a91.828 91.828 0 0 0-6.693-11.565L146.997 61.91ZM129.722 42.868l-16.273 18.291 4.298 3.117 12.369-21.13 23.377-21.227a92.616 92.616 0 0 0-10.794-7.859l-12.977 28.808ZM86.906.295l6.43 30.907-2.41 24.36h5.314l-2.411-24.36L100.26.295a90.13 90.13 0 0 0-6.677-.263c-2.248 0-4.462.115-6.677.263ZM118.502 36.45l-12.107 21.278 4.856 2.165 7.71-23.229 18.472-25.64a91.517 91.517 0 0 0-12.205-5.447l-6.71 30.89-.016-.016ZM106.198 32.497l-7.415 23.328 5.184 1.099 2.706-24.329L119.404 3.69A92.944 92.944 0 0 0 106.329.917l-.131 31.58ZM158.022 26.019l-18.669 25.46-19.719 14.519 3.544 3.937 16.486-18.095 27.282-15.896a93.199 93.199 0 0 0-8.941-9.925h.017ZM118.945 149.416l-7.71-23.229-4.856 2.165 12.107 21.278 6.71 30.89a91.409 91.409 0 0 0 12.205-5.446l-18.472-25.641.016-.017ZM130.116 142.92l-12.369-21.129-4.298 3.116 16.273 18.292 12.977 28.807a92.558 92.558 0 0 0 10.794-7.858l-23.377-21.228ZM147.243 123.742l-19.899-14.272-2.658 4.593 22.311 10.089 23.574 21.048a93.045 93.045 0 0 0 6.693-11.566l-30.021-9.892ZM166.962 150.138l-27.281-15.896-16.487-18.095-3.544 3.937 19.719 14.519 18.669 25.46a91.601 91.601 0 0 0 8.94-9.925h-.016ZM155.035 86.322l-24.476.148.558 5.282 23.984-4.938L186.5 89.98a93.317 93.317 0 0 0-1.378-13.288l-30.071 9.63h-.016ZM155.101 99.25l-23.984-4.938-.558 5.282 24.476.148 30.07 9.63a92.924 92.924 0 0 0 1.378-13.288l-31.399 3.166h.017ZM152.46 111.914l-22.425-9.826-1.641 5.053 23.919 5.233 27.429 15.683a92.862 92.862 0 0 0 4.134-12.714l-31.416-3.445v.016ZM100.26 185.769l-6.431-30.907 2.411-24.361h-5.315l2.412 24.361-6.431 30.907a90.14 90.14 0 0 0 6.677.263c2.247 0 4.462-.115 6.677-.263ZM106.673 153.466l-2.706-24.328-5.184 1.099 7.415 23.328.131 31.579a91.222 91.222 0 0 0 13.075-2.772l-12.731-28.906ZM57.426 143.199l16.273-18.292-4.298-3.116-12.369 21.129-23.377 21.228a92.505 92.505 0 0 0 10.794 7.858l12.977-28.807ZM40.152 124.168l22.311-10.089-2.657-4.594-19.9 14.273-30.02 9.892a91.762 91.762 0 0 0 6.692 11.565l23.574-21.047ZM29.128 160.047l18.669-25.46 19.718-14.518-3.543-3.938-16.487 18.095-27.265 15.896a93.159 93.159 0 0 0 8.94 9.925h-.032ZM68.647 149.63l12.107-21.278-4.856-2.165-7.71 23.229-18.456 25.641a91.562 91.562 0 0 0 12.206 5.447l6.71-30.891v.017ZM34.837 112.374l23.918-5.233-1.64-5.053-22.426 9.826-31.415 3.445a92.782 92.782 0 0 0 4.134 12.714l27.429-15.683v-.016ZM80.968 153.565l7.415-23.328-5.184-1.099-2.707 24.328-12.73 28.906a92.946 92.946 0 0 0 13.075 2.772l.13-31.579Z"/>
</svg>
